build/communication/HeadsetSolid.svg

<svg xmlns="http://www.w3.org/2000/svg" fill="none" viewBox="0 0 24 24" focusable="false"><path d="M0 0H24V24H0z"/><path fill="#74767B" d="M7.64998 9.65C7.64998 7.24756 9.59754 5.3 12 5.3C14.3976 5.3 16.3421 7.2397 16.35 9.63544L16.35 14.1651C16.3435 15.8481 15.016 17.2196 13.3505 17.2966C13.1077 16.7955 12.5942 16.45 12 16.45C11.1715 16.45 10.5 17.1216 10.5 17.95C10.5 18.7784 11.1715 19.45 12 19.45C12.5965 19.45 13.1117 19.1018 13.3534 18.5975C15.4872 18.5264 17.2402 16.9522 17.5875 14.9L18.2999 14.9C19.3769 14.9 20.2499 14.027 20.2499 12.95L20.2499 11.05C20.2499 9.97307 19.3769 9.10002 18.2999 9.10002L17.6236 9.10002C17.347 6.2377 14.9348 4 12 4C9.06513 4 6.65293 6.23767 6.37641 9.09998L5.7 9.09998C4.62305 9.09998 3.75 9.97302 3.75 11.05L3.75 12.95C3.75 14.0269 4.62304 14.9 5.7 14.9L6.9725 14.9C6.98161 14.9004 6.99077 14.9005 6.99998 14.9005C7.34774 14.9005 7.63172 14.6274 7.64913 14.284C7.64935 14.2796 7.64954 14.2751 7.64967 14.2706C7.64989 14.2638 7.65 14.2569 7.65 14.25L7.65 9.74998L7.64998 9.74427L7.64998 9.65Z"/></svg>

<svg xmlns="http://www.w3.org/2000/svg" fill="none" viewBox="0 0 24 24" focusable="false"><path fill="#74767B" d="M7.65 9.65a4.349 4.349 0 1 1 8.7-.02v4.53a3.157 3.157 0 0 1-3 3.13c-.25-.5-.76-.84-1.35-.84-.83 0-1.5.67-1.5 1.5 0 .82.67 1.5 1.5 1.5.59 0 1.11-.35 1.35-.86a4.436 4.436 0 0 0 4.23-3.69h.71c1.08 0 1.96-.88 1.96-1.95v-1.9c0-1.08-.88-1.95-1.96-1.95h-.67A5.647 5.647 0 0 0 12 4C9.06 4 6.65 6.23 6.37 9.09h-.68c-1.07 0-1.94.88-1.94 1.96v1.9c0 1.07.87 1.95 1.94 1.95H7c.34 0 .63-.28.64-.62v-.01c0-.01.01-.02.01-.02v-4.6"/></svg>
